prototype/04-socket-without-vite/public/assets/img/emotion_excitement_bg.svg

<svg width="438" height="885" viewBox="0 0 438 885" fill="none" xmlns="http://www.w3.org/2000/svg">
<g clip-path="url(#clip0_1423_1912)">
<path opacity="0.5" d="M435.856 11.8039C427.904 -3.17616 416.365 -15.0495 402.201 -21.5912C360.427 -40.8839 336.644 -23.9546 337.363 4.33762C337.869 24.2349 367.392 37.5898 381.44 37.5718C400.671 37.5472 420.563 29.4053 435.856 11.8039ZM435.856 11.8039C450.418 39.2339 452.956 77.0804 437.573 111.683M435.856 11.8039C444.216 2.18223 451.202 -10.2661 455.953 -25.7605M437.573 111.683C434.547 118.49 430.827 125.171 426.369 131.623C406.148 160.889 369.429 168.133 340.307 154.64C310.613 140.882 291.44 104.192 334.422 84.1828C370.402 67.4334 414.569 82.1099 437.573 111.683ZM437.573 111.683C442.489 118.002 446.439 125.002 449.136 132.521C459.003 160.031 455.217 200.662 408.184 221.12C386.089 230.731 352.3 226.319 322.531 228.173M322.531 228.173C304.249 229.312 287.484 232.813 275.875 243.376C249.227 267.623 283.845 296.521 307.663 277.472C322.933 265.26 326.942 246.578 322.531 228.173ZM322.531 228.173C315.366 198.275 285.984 169.106 246.569 169.586C217.132 169.944 192.897 192.824 180.335 215.417M180.335 215.417C173.296 228.077 169.921 240.647 171.351 249.112C174.421 267.296 196.312 269.398 204.09 263.781C218.918 253.072 209.027 225.179 188.828 217.048C186.19 215.986 183.332 215.465 180.335 215.417ZM180.335 215.417C153.409 214.987 115.318 252.817 125.374 280.679C125.654 281.455 125.938 282.221 126.226 282.973M126.226 282.973C130.972 295.354 137.039 304.413 151.416 307.296C180.172 313.063 179.292 288.388 160.84 278.991C148.676 272.796 136.362 275.888 126.226 282.973ZM126.226 282.973C114.26 291.339 105.33 305.271 103.263 316.063C98.9487 338.596 171.017 324.286 172.526 370.384C173.172 390.108 159.937 410.325 137.976 423.236M137.976 423.236C120.358 433.594 97.1254 439.25 70.9369 436.18C30.5537 431.446 20.3915 390.671 55.1559 378.918C95.4186 365.305 135.852 388.056 137.976 423.236ZM137.976 423.236C138.642 434.271 135.539 446.529 127.479 459.271C105.748 493.627 17.4326 494.436 -6.72606 491.041C-21.2419 489.001 -67.8222 466.245 -43.852 431.554C-23.6158 402.267 -43.073 386.429 -40.0291 363.241C-34.7272 322.85 33.4344 307.689 34.84 249.098C35.586 218.005 -6.72492 187.555 -49.6973 209.132C-51.354 209.964 -53.1128 211.005 -54.9147 212.242M-54.9147 212.242C-67.3545 220.783 -81.8496 238.677 -78.9937 261.685C-75.4323 290.377 -27.5744 280.45 -34.518 248.086C-38.1931 230.957 -45.7152 219.927 -54.9147 212.242ZM-54.9147 212.242C-64.6714 204.092 -76.315 199.706 -87.2574 195.799C-117.016 185.175 -164.16 190.344 -193.24 193.588C-207.622 195.193 -263.952 188.345 -212.838 148.523C-141.052 92.597 -188.632 46.9272 -91.4904 51.8757C-79.3265 52.4954 -58.8472 57.338 -40.724 68.2486M-40.724 68.2486C-36.9147 70.5418 -33.2095 73.1032 -29.7075 75.9497M-40.724 68.2486C-53.6677 89.1364 -68.4297 105.768 -78.7993 115.867C-123.655 159.55 -153.466 142.795 -195.923 147.736C-225.328 151.157 -127.479 184.016 -115.175 179.794C-82.621 168.624 -48.8294 105.218 -29.7075 75.9497M-40.724 68.2486C-12.0209 21.9292 7.74077 -45.3187 -49.1643 -108.662M-29.7075 75.9497C-14.5912 88.2367 -3.26066 105.838 -3.68524 130.131C-4.35284 168.327 73.5665 198.419 120.395 196.501C165.608 194.649 187.855 174.227 194.517 149.7M-29.7075 75.9497C-25.4223 69.3907 -21.8738 64.5461 -19.241 62.3882C-3.00534 49.0807 21.498 63.2227 33.2036 51.9227C46.1154 39.4583 39.8161 0.847263 55.8134 -6.74796C87.1368 -21.6198 122.633 0.340485 135.536 -7.05161C145.875 -12.9747 148.989 -25.3936 136.963 -36.193C119.722 -51.6745 69.1019 -57.401 48.1895 -66.7905C-0.0729942 -88.4598 -74.7745 -192.77 33.3462 -263.05C97.163 -304.532 177.174 -254.69 177.76 -198.261M194.517 149.7C199.104 132.81 196.301 113.972 188.517 97.9116C155.415 29.6146 98.3758 36.5753 77.1444 67.3027C51.78 104.011 110.638 143.494 143.393 149.679C154.472 151.771 173.41 152.654 194.517 149.7ZM194.517 149.7C243.617 142.827 304.453 115.187 305.394 33.6819C305.851 -5.9118 287.272 -36.5801 264.881 -58.8233M264.881 -58.8233C238.608 -84.9231 207.086 -99.4229 194.908 -103.131C144.028 -118.623 92.2992 -74.2188 188.513 -31.8257C218.169 -18.7587 253.46 -28.9165 264.881 -58.8233ZM264.881 -58.8233C271.412 -75.923 270.139 -99.479 255.547 -128.842C249.102 -141.812 225.804 -186.66 177.76 -198.261M177.76 -198.261C176.193 -198.639 174.6 -198.983 172.979 -199.288C117.063 -209.829 72.5121 -238.052 41.1992 -236.057C-20.7742 -232.108 -29.0964 -134.321 53.7717 -115.484C125.553 -99.1681 151.339 -137.673 168.085 -164.721C174.896 -175.723 177.876 -187.12 177.76 -198.261ZM-56.13 831.043C-48.1777 846.023 -36.6391 857.896 -22.4748 864.438C19.2983 883.731 43.0818 866.802 42.3629 838.51C41.8574 818.613 12.3347 805.258 -1.71342 805.276C-20.9441 805.3 -40.8368 813.442 -56.13 831.043ZM-56.13 831.043C-70.6916 803.613 -73.2289 765.766 -57.8456 731.164M-56.13 831.043C-64.49 840.664 -71.4756 853.113 -76.2273 868.607M-57.8456 731.164C-54.8194 724.357 -51.0997 717.676 -46.6416 711.224C-26.4196 681.958 10.2995 674.715 39.4211 688.208C69.115 701.966 88.2875 738.656 45.3047 758.665C9.32454 775.414 -34.8414 760.737 -57.8456 731.164ZM-57.8456 731.164C-62.7616 724.844 -66.7111 717.844 -69.4079 710.325C-79.2746 682.816 -75.4886 642.185 -28.455 621.727C-6.36026 612.117 27.4288 616.528 57.1974 614.675M57.1974 614.675C75.4793 613.537 92.2448 610.035 103.854 599.472C130.502 575.225 95.8846 546.327 72.0663 565.376C56.7959 577.588 52.787 596.27 57.1974 614.675ZM57.1974 614.675C64.3619 644.574 93.7443 673.742 133.159 673.263C162.596 672.905 186.831 650.025 199.393 627.433M199.393 627.433C206.433 614.773 209.807 602.203 208.378 593.737C205.308 575.553 183.417 573.451 175.639 579.068C160.811 589.777 170.702 617.67 190.9 625.801C193.538 626.863 196.397 627.385 199.393 627.433ZM199.393 627.433C226.319 627.863 264.411 590.033 254.355 562.171C254.075 561.395 253.791 560.63 253.503 559.877M253.503 559.877C248.758 547.496 242.69 538.437 228.313 535.554C199.557 529.787 200.437 554.462 218.889 563.859C231.054 570.054 243.367 566.962 253.503 559.877ZM253.503 559.877C265.469 551.512 274.4 537.579 276.466 526.787C280.781 504.255 208.712 518.563 207.204 472.466C206.558 452.742 219.793 432.525 241.755 419.614M241.755 419.614C259.372 409.256 282.606 403.6 308.794 406.67C349.177 411.405 359.339 452.18 324.574 463.933C284.312 477.545 243.878 454.794 241.755 419.614ZM241.755 419.614C241.089 408.579 244.192 396.321 252.252 383.579C273.984 349.223 362.299 348.415 386.458 351.811C400.974 353.851 447.554 376.608 423.583 411.298C403.346 440.585 422.803 456.423 419.759 479.611C414.457 520.002 346.295 535.162 344.889 593.753C344.143 624.846 386.453 655.297 429.426 633.72C431.083 632.888 432.841 631.847 434.643 630.61M434.643 630.61C447.083 622.069 461.578 604.175 458.723 581.167C455.162 552.476 407.304 562.402 414.247 594.766C417.922 611.895 425.444 622.925 434.643 630.61ZM434.643 630.61C444.4 638.76 456.043 643.146 466.986 647.053C496.744 657.678 543.888 652.51 572.968 649.265C587.35 647.661 643.68 654.51 592.566 694.331C520.779 750.256 568.358 795.926 471.217 790.977C459.053 790.357 438.574 785.514 420.451 774.603M420.451 774.603C416.642 772.31 412.937 769.749 409.435 766.902M420.451 774.603C433.395 753.716 448.157 737.084 458.527 726.986C503.383 683.303 533.194 700.058 575.651 695.118C605.055 691.697 507.207 658.837 494.904 663.058C462.349 674.228 428.557 737.634 409.435 766.902M420.451 774.603C391.747 820.922 371.985 888.17 428.889 951.514M409.435 766.902C394.318 754.615 382.988 737.014 383.413 712.721C384.081 674.524 306.162 644.432 259.333 646.349C214.121 648.201 191.873 668.622 185.211 693.149M409.435 766.902C405.149 773.461 401.601 778.306 398.968 780.464C382.732 793.771 358.229 779.629 346.523 790.928C333.611 803.393 339.91 842.004 323.913 849.599C292.589 864.47 257.093 842.51 244.19 849.902C233.851 855.825 230.737 868.243 242.763 879.043C260.004 894.525 310.624 900.252 331.536 909.641C379.798 931.311 454.499 1035.62 346.377 1105.9C282.56 1147.38 202.55 1097.54 201.964 1041.11M185.211 693.149C180.623 710.04 183.427 728.877 191.211 744.938C224.312 813.235 281.351 806.275 302.583 775.548C327.947 738.839 269.09 699.356 236.335 693.171C225.256 691.079 206.318 690.195 185.211 693.149ZM185.211 693.149C136.111 700.021 75.2744 727.661 74.3326 809.166C73.8751 848.76 92.4534 879.428 114.844 901.672M114.844 901.672C141.117 927.772 172.64 942.272 184.818 945.98C235.697 961.473 287.426 917.069 191.213 874.675C161.557 861.608 126.266 871.765 114.844 901.672ZM114.844 901.672C108.314 918.772 109.586 942.328 124.177 971.69C130.623 984.661 153.92 1029.51 201.964 1041.11M201.964 1041.11C203.531 1041.49 205.125 1041.83 206.745 1042.14C262.66 1052.68 307.212 1080.9 338.524 1078.91C400.498 1074.96 408.821 977.173 325.953 958.335C254.172 942.018 228.386 980.523 211.64 1007.57C204.828 1018.57 201.848 1029.97 201.964 1041.11Z" stroke="#ECAD0A" stroke-width="2" stroke-linecap="round"/>
</g>
<defs>
<clipPath id="clip0_1423_1912">
<rect width="437" height="884" fill="white" transform="translate(0.230469 0.196777)"/>
</clipPath>
</defs>
</svg>

<svg fill="none" viewBox="0 0 438 885" xmlns="http://www.w3.org/2000/svg">
<g clip-path="url(#a)">
<path d="m435.86 11.804c-7.952-14.98-19.491-26.853-33.655-33.395-41.774-19.293-65.557-2.3634-64.838 25.929 0.506 19.897 30.029 33.252 44.077 33.234 19.231-0.0246 39.123-8.1665 54.416-25.768zm0 0c14.562 27.43 17.1 65.276 1.717 99.879m-1.717-99.879c8.36-9.6217 15.346-22.07 20.097-37.564m-18.38 137.44c-3.026 6.807-6.746 13.488-11.204 19.94-20.221 29.266-56.94 36.51-86.062 23.017-29.694-13.758-48.867-50.448-5.885-70.457 35.98-16.749 80.147-2.0729 103.15 27.5zm0 0c4.916 6.319 8.866 13.319 11.563 20.838 9.867 27.51 6.081 68.141-40.952 88.599-22.095 9.611-55.884 5.199-85.653 7.053m0 0c-18.282 1.139-35.047 4.64-46.656 15.203-26.648 24.247 7.97 53.145 31.788 34.096 15.27-12.212 19.279-30.894 14.868-49.299zm0 0c-7.165-29.898-36.547-59.067-75.962-58.587-29.437 0.358-53.672 23.238-66.234 45.831m0 0c-7.039 12.66-10.414 25.23-8.984 33.695 3.07 18.184 24.961 20.286 32.739 14.669 14.828-10.709 4.937-38.602-15.262-46.733-2.638-1.062-5.496-1.583-8.493-1.631zm0 0c-26.926-0.43-65.017 37.4-54.961 65.262 0.28 0.776 0.564 1.542 0.852 2.294m0 0c4.746 12.381 10.813 21.44 25.19 24.323 28.756 5.767 27.876-18.908 9.424-28.305-12.164-6.195-24.478-3.103-34.614 3.982zm0 0c-11.966 8.366-20.896 22.298-22.963 33.09-4.3143 22.533 67.754 8.223 69.263 54.321 0.646 19.724-12.589 39.941-34.55 52.852m0 0c-17.618 10.358-40.851 16.014-67.039 12.944-40.383-4.734-50.545-45.509-15.781-57.262 40.263-13.613 80.696 9.138 82.82 44.318zm0 0c0.666 11.035-2.437 23.293-10.497 36.035-21.731 34.356-110.05 35.165-134.21 31.77-14.516-2.04-61.096-24.796-37.126-59.487 20.236-29.287 0.779-45.125 3.8229-68.313 5.3019-40.391 73.464-55.552 74.869-114.14 0.746-31.093-41.565-61.543-84.537-39.966-1.6567 0.832-3.4155 1.873-5.2174 3.11m0 0c-12.44 8.541-26.935 26.435-24.079 49.443 3.5614 28.692 51.419 18.765 44.476-13.599-3.6751-17.129-11.197-28.159-20.397-35.844zm0 0c-9.7567-8.15-21.4-12.536-32.343-16.443-29.759-10.624-76.903-5.455-105.98-2.211-14.382 1.605-70.712-5.243-19.598-45.065 71.786-55.926 24.206-101.6 121.35-96.647 12.164 0.6197 32.643 5.4623 50.766 16.373m0 0c3.8093 2.2932 7.5145 4.8546 11.016 7.7011m-11.016-7.7011c-12.944 20.888-27.706 37.519-38.075 47.618-44.856 43.683-74.667 26.928-117.12 31.869-29.405 3.421 68.444 36.28 80.748 32.058 32.554-11.17 66.346-74.576 85.468-103.84m-11.016-7.7011c28.703-46.319 48.465-113.57-8.4403-176.91m19.457 184.61c15.116 12.287 26.447 29.888 26.022 54.181-0.6676 38.196 77.252 68.288 124.08 66.37 45.213-1.852 67.46-22.274 74.122-46.801m-224.22-73.75c4.2852-6.559 7.8337-11.404 10.466-13.562 16.236-13.308 40.739 0.8345 52.445-10.466 12.912-12.464 6.6125-51.075 22.61-58.671 31.323-14.872 66.82 7.0884 79.723-0.30365 10.339-5.9231 13.453-18.342 1.427-29.141-17.241-15.482-67.861-21.208-88.774-30.598-48.262-21.669-122.96-125.98-14.843-196.26 63.817-41.482 143.83 8.36 144.41 64.789m16.757 347.96c4.587-16.89 1.784-35.728-6-51.788-33.102-68.297-90.141-61.336-111.37-30.609-25.364 36.708 33.494 76.191 66.249 82.376 11.079 2.092 30.017 2.975 51.124 0.021zm0 0c49.1-6.873 109.94-34.513 110.88-116.02 0.457-39.594-18.122-70.262-40.513-92.505m0 0c-26.273-26.1-57.795-40.6-69.973-44.308-50.88-15.492-102.61 28.912-6.395 71.305 29.656 13.067 64.947 2.9092 76.368-26.998zm0 0c6.531-17.1 5.258-40.656-9.334-70.019-6.445-12.97-29.743-57.818-77.787-69.419m0 0c-1.567-0.378-3.16-0.722-4.781-1.027-55.916-10.541-100.47-38.764-131.78-36.769-61.973 3.949-70.296 101.74 12.572 120.57 71.781 16.316 97.567-22.189 114.31-49.237 6.811-11.002 9.791-22.399 9.675-33.54zm-233.89 1029.3c7.9523 14.98 19.491 26.853 33.655 33.395 41.773 19.293 65.557 2.364 64.838-25.928-0.5055-19.897-30.028-33.252-44.076-33.234-19.231 0.024-39.123 8.166-54.417 25.767zm0 0c-14.562-27.43-17.099-65.277-1.7156-99.879m1.7156 99.879c-8.36 9.621-15.346 22.07-20.097 37.564m18.382-137.44c3.0262-6.807 6.7459-13.488 11.204-19.94 20.222-29.266 56.941-36.509 86.063-23.016 29.694 13.758 48.866 50.448 5.8836 70.457-35.98 16.749-80.146 2.072-103.15-27.501zm0 0c-4.916-6.32-8.8655-13.32-11.562-20.839-9.8667-27.509-6.0807-68.14 40.953-88.598 22.095-9.61 55.884-5.199 85.652-7.052m0 0c18.282-1.138 35.047-4.64 46.657-15.203 26.648-24.247-7.9694-53.145-31.788-34.096-15.27 12.212-19.279 30.894-14.869 49.299zm0 0c7.1645 29.899 36.547 59.067 75.962 58.588 29.437-0.358 53.672-23.238 66.234-45.83m0 0c7.04-12.66 10.414-25.23 8.985-33.696-3.07-18.184-24.961-20.286-32.739-14.669-14.828 10.709-4.937 38.602 15.261 46.733 2.638 1.062 5.497 1.584 8.493 1.632zm0 0c26.926 0.43 65.018-37.4 54.962-65.262-0.28-0.776-0.564-1.541-0.852-2.294m0 0c-4.745-12.381-10.813-21.44-25.19-24.323-28.756-5.767-27.876 18.908-9.424 28.305 12.165 6.195 24.478 3.103 34.614-3.982zm0 0c11.966-8.365 20.897-22.298 22.963-33.09 4.315-22.532-67.754-8.224-69.262-54.321-0.646-19.724 12.589-39.941 34.551-52.852m0 0c17.617-10.358 40.851-16.014 67.039-12.944 40.383 4.735 50.545 45.51 15.78 57.263-40.262 13.612-80.696-9.139-82.819-44.319zm0 0c-0.666-11.035 2.437-23.293 10.497-36.035 21.732-34.356 110.05-35.164 134.21-31.768 14.516 2.04 61.096 24.797 37.125 59.487-20.237 29.287-0.78 45.125-3.824 68.313-5.302 40.391-73.464 55.551-74.87 114.14-0.746 31.093 41.564 61.544 84.537 39.967 1.657-0.832 3.415-1.873 5.217-3.11m0 0c12.44-8.541 26.935-26.435 24.08-49.443-3.561-28.691-51.419-18.765-44.476 13.599 3.675 17.129 11.197 28.159 20.396 35.844zm0 0c9.757 8.15 21.4 12.536 32.343 16.443 29.758 10.625 76.902 5.457 105.98 2.212 14.382-1.604 70.712 5.245 19.598 45.066-71.787 55.925-24.208 101.6-121.35 96.646-12.164-0.62-32.643-5.463-50.766-16.374m0 0c-3.809-2.293-7.514-4.854-11.016-7.701m11.016 7.701c12.944-20.887 27.706-37.519 38.076-47.617 44.856-43.683 74.667-26.928 117.12-31.868 29.404-3.421-68.444-36.281-80.747-32.06-32.555 11.17-66.347 74.576-85.469 103.84m11.016 7.701c-28.704 46.319-48.466 113.57 8.438 176.91m-19.454-184.61c-15.117-12.287-26.447-29.888-26.022-54.181 0.668-38.197-77.251-68.289-124.08-66.372-45.212 1.852-67.46 22.273-74.122 46.8m224.22 73.753c-4.286 6.559-7.834 11.404-10.467 13.562-16.236 13.307-40.739-0.835-52.445 10.464-12.912 12.465-6.613 51.076-22.61 58.671-31.324 14.871-66.82-7.089-79.723 0.303-10.339 5.923-13.453 18.341-1.427 29.141 17.241 15.482 67.861 21.209 88.773 30.598 48.262 21.67 122.96 125.98 14.841 196.26-63.817 41.48-143.83-8.36-144.41-64.79m-16.753-347.96c-4.588 16.891-1.784 35.728 6 51.789 33.101 68.297 90.14 61.337 111.37 30.61 25.364-36.709-33.493-76.192-66.248-82.377-11.079-2.092-30.017-2.976-51.124-0.022zm0 0c-49.1 6.872-109.94 34.512-110.88 116.02-0.4575 39.594 18.121 70.262 40.511 92.506m0 0c26.273 26.1 57.796 40.6 69.974 44.308 50.879 15.493 102.61-28.911 6.395-71.305-29.656-13.067-64.947-2.91-76.369 26.997zm0 0c-6.53 17.1-5.258 40.656 9.333 70.018 6.446 12.971 29.743 57.82 77.787 69.42m0 0c1.567 0.38 3.161 0.72 4.781 1.03 55.915 10.54 100.47 38.76 131.78 36.77 61.974-3.95 70.297-101.74-12.571-120.58-71.781-16.317-97.567 22.188-114.31 49.235-6.812 11-9.792 22.4-9.676 33.54z" opacity=".5" stroke="#ECAD0A" stroke-linecap="round" stroke-width="2"/>
</g>
<defs>
<clipPath id="a">
<rect transform="translate(.23047 .19678)" width="437" height="884" fill="#fff"/>
</clipPath>
</defs>
</svg>
